!!!COM: Felix Mendelssohn
!!!CNT: Deutsch
!!!TXO: Deutsch
!!!OTL: Pilgerspruch
!!!LYR: Faul Flemming
!!!OPS: Op. 8
!!!ONM: No. 5
!!!ENC: Daniel Alt & Leigh VanHandel
!!!YOR: Sa2mmtliche Lieder fu2r eine Singstimme
!!!YOR: Neu revidirt von Dr. L. Benda, Ausgabe fu2r mittlere Stimme
!!!YOR: Braunschweig. Henry Litolff's Verlag. Boston and New York: Arthur P. Schmidt.
!!!ODT: 1825/
!!NB: Date is publication date
**kern	**silbe
*staff1	*
=1-	=1
*clefG2	*
*k[b-]	*
*met(C)	*
*M4/4	*
1r	.
=2	=2
2r	.
4r	.
{4cc	{Lass
=3	=3
4.cc	dich
8b-	nur
4a	nichts
4g	nicht
=4	=4
2g	dau-
4f	-ern,
4dd	mit
=5	=5
2cc	Trau-
4bn	-ern
4b	sei
=6	=6
4cc	stil-
4g}	-le!}
4r	.
{4e	{Wie
=7	=7
4.f	Gott
8g	es
4a	fu2gt,
4a	so
=8	=8
4.b-	sei
8cc	ver-
4dd	-gnu2gt,
8dd	so
8cc	|
=9	=9
4.cc	sei
8b-	ver-
4a	-gnu2gt
4g	mein
=10	=10
4g	Wil-
4f}	-le,}
4r	.
{8dd	{so
8cc	|
=11	=11
4cc	sei
4ee-	|
4dd	|
4a	ver-
=12	=12
[2cc	-gnu2gt
8cc]	|
8b-	|
8a	mein
8g	|
=13	=13
2f	Wil-
4.a	|
8g	|
=14	=14
4f}	-le.}
4r	.
2r	.
=15	=15
2r	.
4r	.
{4cc	{Sei
=16	=16
4.cc	nur
8b-	in
4a	al-
4g	-lem
=17	=17
2g	Han-
4f	-del
4dd	ohn�
=18	=18
2cc	Wan-
4bn	-del,
4b	steh�
=19	=19
4cc	fe-
4g}	-ste!}
4r	.
{4e	{Was
=20	=20
4.f	Gott
8g	besch-
4a	-leusst,
4a	das
=21	=21
4.b-	ist
8cc	und
4dd	heist,
8dd	das
8cc	|
=22	=22
4.cc	ist
8b-	und
4a	heisst
4g	das
=23	=23
4g	Bes-
4f}	-te,}
4r	.
{4cc	{das
=24	=24
[1cc	heisst
=25	=25
1cc_	|
=26	=26
4cc]	|
4ee-	|
4dd	|
4a	und
=27	=27
[2cc	ist
8cc]	|
8b-	|
8a	das
8g	|
=28	=28
2f	Be-
4a	|
4g	|
=29	=29
4f}	-ste.}
4r	.
2r	.
==	==
*-	*-
